X:13
T:Tarantella
I:last changed 14/2/2016
F:http://www.campin.me.uk/Music/Edinbal.abc
%N:If the D part is used, the order is ADBC or ADABAC.
M:6/8
L:1/8
%Q:3/8=142
P:ABAC
%P:ADABAC
K:AMin
P:A
a2a|e2e a2a|e2e e2e |f2f  fgf|f2e
efe|e2d ded|d2c cdc |c2B  c2B|A2z:|
P:B
A2B|cBc dcB|cBc dcB |cBA ^GAB|A2z
A2B|cBc dcd|ede fed |cBA ^GAB|A2z:|
P:C
GAB|cBc ece|g2g gag |g2f  fgf|f2e
GAB|cBc ece|g2g g^fg|bag  fed|c2z:|
%P:D
%B2c|d2d e2d|c2B A2B |c2c  d2c|B2A
%G2B|d2d e2d|c2B A2B |cdc  B2A|G2z:|

